{"type":"map","version":"1.10","tiledversion":"1.11.0","orientation":"orthogonal","renderorder":"right-down","width":50,"height":28,"tilewidth":32,"tileheight":32,"infinite":false,"nextlayerid":99,"nextobjectid":23,"tilesets":[{"firstgid":1,"name":"surfaces","tilewidth":32,"tileheight":32,"tilecount":9,"columns":9,"image":"surfaces.png","imagewidth":288,"imageheight":32,"tiles":[{"id":0,"properties":[{"name":"surface","type":"string","value":"dirt"}]},{"id":1,"properties":[{"name":"surface","type":"string","value":"tarmac"}]},{"id":2,"properties":[{"name":"surface","type":"string","value":"mud"}]},{"id":3,"properties":[{"name":"surface","type":"string","value":"water"}]},{"id":4,"properties":[{"name":"surface","type":"string","value":"oil"}]},{"id":5,"properties":[{"name":"surface","type":"string","value":"boost"}]},{"id":6,"properties":[{"name":"surface","type":"string","value":"toxic"}]},{"id":7,"properties":[{"name":"surface","type":"string","value":"mogul"}]},{"id":8,"properties":[{"name":"surface","type":"string","value":"ramp"}]}]}],"layers":[{"id":22,"name":"surface","type":"tilelayer","width":50,"height":28,"data":[0,0,0,0,0,0,0,0,0,0,0,0,0,0,0,0,0,0,0,0,0,0,0,0,0,0,0,0,0,0,0,0,0,0,0,0,0,0,0,0,0,0,0,0,0,0,0,0,0,0,0,0,0,0,0,0,0,0,0,0,0,0,0,0,0,0,0,0,0,0,0,0,0,0,0,0,0,0,0,0,0,0,0,0,0,0,0,0,0,0,0,0,0,0,0,0,0,0,0,0,0,0,0,0,0,0,0,0,0,0,0,0,0,0,0,0,0,0,0,0,0,0,0,0,0,0,0,0,0,0,0,0,0,0,0,0,0,0,0,0,0,0,0,0,0,0,0,0,0,0,0,0,0,0,0,0,0,0,0,0,0,0,0,0,0,0,0,0,0,0,0,0,0,0,0,0,0,0,0,0,0,0,0,0,0,0,0,0,0,0,0,0,0,0,0,0,0,0,0,0,0,0,0,0,0,0,0,0,0,0,0,0,0,0,1,1,1,1,1,1,1,8,1,1,8,1,8,1,1,8,1,1,1,0,0,0,0,0,0,0,0,0,0,0,0,0,0,0,0,0,0,0,0,0,0,0,0,0,0,0,1,1,1,1,1,1,1,1,1,1,1,8,1,1,8,1,8,1,1,8,1,1,1,1,1,0,0,0,0,0,0,0,0,0,0,0,0,0,0,0,0,0,0,0,0,0,0,0,1,1,1,1,1,1,1,1,1,1,1,1,1,8,1,1,8,1,8,1,1,8,1,1,1,1,1,1,0,0,0,0,0,0,0,0,0,0,0,0,0,0,0,0,0,0,0,0,0,1,1,1,1,1,1,1,1,1,0,0,0,0,0,0,0,0,0,0,0,0,0,0,0,0,1,1,1,1,1,0,0,0,0,0,0,0,0,0,0,0,0,0,0,0,0,0,0,1,1,1,1,1,1,0,0,0,0,0,0,0,0,0,0,0,0,0,0,0,0,0,0,0,0,0,0,0,1,1,1,0,0,0,0,0,0,0,0,0,0,0,0,0,0,0,0,0,0,1,1,1,1,0,0,0,0,0,0,0,0,0,0,0,0,0,0,0,0,0,0,0,0,0,0,0,0,0,1,1,1,1,0,0,0,0,0,0,0,0,0,0,0,0,0,0,0,0,1,1,1,1,0,0,0,0,0,0,0,0,0,0,0,0,0,0,0,0,0,0,0,0,0,0,0,0,1,1,1,1,1,0,0,0,0,0,0,0,0,0,0,0,0,0,0,0,0,0,1,1,1,0,0,0,0,0,0,0,0,0,0,0,0,0,0,0,0,0,0,0,0,0,1,1,1,1,1,1,1,1,0,0,0,0,0,0,0,0,0,0,0,0,0,0,0,0,0,1,1,1,1,0,0,0,0,0,0,0,0,0,0,0,0,0,0,1,1,1,1,1,1,1,1,1,1,1,1,1,1,0,0,0,0,0,0,0,0,0,0,0,0,0,0,0,0,0,0,1,1,1,0,0,0,0,0,0,0,0,0,0,0,0,1,1,1,1,1,1,1,1,1,1,1,1,1,1,1,0,0,0,0,0,0,0,1,1,1,1,0,0,0,0,0,0,0,0,0,1,1,1,0,0,0,0,0,0,0,0,0,0,0,1,1,1,1,1,1,1,1,1,1,1,1,1,0,0,0,0,0,0,0,0,1,1,1,1,1,1,1,0,0,0,0,0,0,0,0,1,1,1,1,0,0,0,0,0,0,0,0,0,1,1,1,1,1,1,0,0,0,0,0,0,0,0,0,0,0,0,0,0,0,1,1,1,7,7,7,1,1,1,1,0,0,0,0,0,0,0,1,7,7,0,0,0,0,0,0,0,0,0,1,1,1,1,0,0,0,0,0,0,0,0,0,0,0,0,0,0,0,0,1,1,1,1,7,0,7,1,1,1,1,0,0,0,0,0,0,0,7,7,7,0,0,0,0,0,0,0,0,0,1,1,1,0,0,0,0,0,0,0,0,0,0,0,0,0,0,0,0,1,1,1,1,0,0,0,0,0,1,1,1,1,0,0,0,0,0,0,1,7,7,7,0,0,0,0,0,0,0,0,1,1,1,0,0,0,0,0,0,0,0,0,0,0,0,0,0,0,0,1,1,1,0,0,0,0,0,0,0,1,1,1,0,0,0,0,0,0,0,1,1,1,1,1,0,0,0,0,0,0,1,1,1,1,0,0,0,0,0,0,0,0,0,0,0,0,0,0,1,1,1,1,0,0,0,0,0,0,0,9,9,9,1,0,0,0,0,0,0,0,1,1,1,1,1,1,0,0,0,0,1,1,1,1,1,1,1,1,1,1,1,1,1,1,1,0,0,0,1,1,1,0,0,0,0,0,0,0,0,9,9,9,1,0,0,0,0,0,0,0,0,1,1,1,1,1,1,0,0,0,0,1,1,1,1,1,1,1,1,1,1,1,1,1,1,1,1,1,1,1,1,0,0,0,0,0,0,0,0,1,1,1,0,0,0,0,0,0,0,0,0,0,0,1,1,1,1,1,0,0,0,0,0,1,1,1,1,1,1,1,1,1,1,1,1,1,1,1,1,1,0,0,0,0,0,0,0,0,1,1,1,1,0,0,0,0,0,0,0,0,0,0,0,0,1,1,1,1,1,0,0,0,0,0,0,0,1,1,1,1,1,0,0,1,1,1,1,1,1,0,0,0,0,0,0,0,1,1,1,1,1,0,0,0,0,0,0,0,0,0,0,0,0,0,0,1,1,1,1,1,1,1,1,1,1,1,1,1,1,1,6,6,1,1,0,0,0,0,0,0,0,0,1,1,1,1,1,1,1,1,0,0,0,0,0,0,0,0,0,0,0,0,0,0,0,0,1,1,1,1,1,1,1,1,1,1,1,1,1,1,6,6,1,1,1,1,1,1,1,1,1,1,1,1,1,1,1,1,1,0,0,0,0,0,0,0,0,0,0,0,0,0,0,0,0,0,0,0,1,1,1,1,1,1,1,1,1,1,1,1,6,6,1,1,1,1,1,1,1,1,1,1,1,1,1,1,1,0,0,0,0,0,0,0,0,0,0,0,0,0,0,0,0,0,0,0,0,0,0,0,0,0,1,1,1,1,1,1,1,1,6,6,1,1,1,1,1,1,1,1,1,1,1,0,0,0,0,0,0,0,0,0,0,0],"visible":true,"opacity":1,"x":0,"y":0},{"name":"walls","type":"objectgroup","objects":[{"id":1,"name":"outer","x":0,"y":0,"polygon":[{"x":800,"y":875},{"x":829,"y":875},{"x":862,"y":876},{"x":898,"y":878},{"x":938,"y":879},{"x":979,"y":881},{"x":1022,"y":882},{"x":1065,"y":883},{"x":1107,"y":883},{"x":1148,"y":883},{"x":1187,"y":881},{"x":1224,"y":879},{"x":1257,"y":874},{"x":1287,"y":869},{"x":1315,"y":862},{"x":1342,"y":854},{"x":1367,"y":845},{"x":1391,"y":836},{"x":1413,"y":825},{"x":1434,"y":814},{"x":1453,"y":802},{"x":1471,"y":789},{"x":1487,"y":777},{"x":1501,"y":763},{"x":1515,"y":749},{"x":1527,"y":732},{"x":1536,"y":713},{"x":1543,"y":694},{"x":1547,"y":674},{"x":1549,"y":655},{"x":1549,"y":636},{"x":1547,"y":618},{"x":1544,"y":600},{"x":1539,"y":583},{"x":1533,"y":567},{"x":1526,"y":551},{"x":1518,"y":536},{"x":1508,"y":522},{"x":1497,"y":508},{"x":1483,"y":495},{"x":1469,"y":483},{"x":1454,"y":472},{"x":1438,"y":461},{"x":1421,"y":451},{"x":1404,"y":443},{"x":1386,"y":436},{"x":1368,"y":430},{"x":1349,"y":426},{"x":1330,"y":425},{"x":1310,"y":427},{"x":1292,"y":431},{"x":1274,"y":437},{"x":1257,"y":445},{"x":1241,"y":453},{"x":1226,"y":463},{"x":1211,"y":474},{"x":1197,"y":484},{"x":1183,"y":496},{"x":1171,"y":507},{"x":1159,"y":518},{"x":1147,"y":529},{"x":1135,"y":544},{"x":1125,"y":560},{"x":1117,"y":577},{"x":1110,"y":592},{"x":1105,"y":607},{"x":1101,"y":621},{"x":1096,"y":633},{"x":1092,"y":643},{"x":1088,"y":650},{"x":1085,"y":655},{"x":1082,"y":658},{"x":1080,"y":660},{"x":1074,"y":662},{"x":1066,"y":664},{"x":1055,"y":665},{"x":1042,"y":665},{"x":1027,"y":665},{"x":1011,"y":664},{"x":994,"y":662},{"x":976,"y":660},{"x":957,"y":658},{"x":938,"y":657},{"x":919,"y":655},{"x":900,"y":655},{"x":882,"y":655},{"x":864,"y":656},{"x":846,"y":657},{"x":828,"y":658},{"x":811,"y":659},{"x":794,"y":660},{"x":778,"y":661},{"x":762,"y":661},{"x":748,"y":661},{"x":734,"y":660},{"x":721,"y":658},{"x":710,"y":656},{"x":698,"y":653},{"x":685,"y":649},{"x":672,"y":645},{"x":659,"y":640},{"x":647,"y":635},{"x":636,"y":629},{"x":626,"y":623},{"x":617,"y":618},{"x":610,"y":612},{"x":605,"y":607},{"x":602,"y":603},{"x":601,"y":601},{"x":600,"y":598},{"x":599,"y":593},{"x":599,"y":587},{"x":599,"y":578},{"x":600,"y":569},{"x":602,"y":560},{"x":605,"y":550},{"x":609,"y":541},{"x":613,"y":533},{"x":618,"y":526},{"x":623,"y":520},{"x":628,"y":515},{"x":633,"y":512},{"x":642,"y":508},{"x":653,"y":503},{"x":666,"y":499},{"x":682,"y":496},{"x":698,"y":492},{"x":716,"y":489},{"x":734,"y":486},{"x":753,"y":483},{"x":772,"y":481},{"x":791,"y":478},{"x":808,"y":474},{"x":824,"y":471},{"x":839,"y":469},{"x":856,"y":468},{"x":873,"y":466},{"x":890,"y":464},{"x":907,"y":463},{"x":925,"y":461},{"x":943,"y":459},{"x":961,"y":456},{"x":979,"y":453},{"x":998,"y":448},{"x":1015,"y":442},{"x":1032,"y":436},{"x":1049,"y":429},{"x":1066,"y":421},{"x":1084,"y":413},{"x":1102,"y":404},{"x":1120,"y":394},{"x":1136,"y":384},{"x":1152,"y":373},{"x":1167,"y":360},{"x":1180,"y":345},{"x":1190,"y":325},{"x":1195,"y":302},{"x":1193,"y":280},{"x":1187,"y":262},{"x":1178,"y":245},{"x":1167,"y":229},{"x":1154,"y":214},{"x":1139,"y":200},{"x":1122,"y":186},{"x":1103,"y":174},{"x":1082,"y":162},{"x":1060,"y":152},{"x":1036,"y":143},{"x":1010,"y":136},{"x":981,"y":131},{"x":951,"y":128},{"x":918,"y":125},{"x":883,"y":124},{"x":846,"y":123},{"x":809,"y":124},{"x":771,"y":125},{"x":733,"y":126},{"x":696,"y":128},{"x":661,"y":130},{"x":627,"y":133},{"x":596,"y":135},{"x":567,"y":138},{"x":538,"y":141},{"x":509,"y":144},{"x":481,"y":147},{"x":453,"y":151},{"x":426,"y":156},{"x":399,"y":161},{"x":374,"y":167},{"x":349,"y":173},{"x":325,"y":181},{"x":302,"y":190},{"x":280,"y":200},{"x":259,"y":211},{"x":240,"y":223},{"x":222,"y":237},{"x":205,"y":251},{"x":189,"y":266},{"x":174,"y":282},{"x":161,"y":299},{"x":150,"y":316},{"x":139,"y":333},{"x":130,"y":351},{"x":123,"y":369},{"x":117,"y":388},{"x":112,"y":409},{"x":110,"y":430},{"x":110,"y":451},{"x":111,"y":472},{"x":114,"y":493},{"x":118,"y":514},{"x":123,"y":534},{"x":129,"y":554},{"x":136,"y":573},{"x":144,"y":591},{"x":153,"y":608},{"x":162,"y":625},{"x":175,"y":641},{"x":189,"y":656},{"x":204,"y":668},{"x":219,"y":679},{"x":235,"y":688},{"x":250,"y":697},{"x":265,"y":704},{"x":280,"y":711},{"x":293,"y":718},{"x":305,"y":724},{"x":315,"y":730},{"x":323,"y":736},{"x":331,"y":742},{"x":338,"y":749},{"x":345,"y":756},{"x":352,"y":763},{"x":360,"y":771},{"x":367,"y":779},{"x":375,"y":788},{"x":384,"y":797},{"x":393,"y":805},{"x":404,"y":814},{"x":416,"y":822},{"x":429,"y":830},{"x":442,"y":836},{"x":454,"y":842},{"x":467,"y":847},{"x":480,"y":851},{"x":494,"y":855},{"x":507,"y":859},{"x":521,"y":863},{"x":536,"y":866},{"x":550,"y":868},{"x":565,"y":871},{"x":580,"y":873},{"x":595,"y":875},{"x":610,"y":876},{"x":625,"y":877},{"x":640,"y":878},{"x":654,"y":878},{"x":668,"y":878},{"x":682,"y":877},{"x":698,"y":877},{"x":714,"y":876},{"x":732,"y":876},{"x":752,"y":875},{"x":775,"y":875}],"visible":true,"rotation":0},{"id":2,"name":"inner","x":0,"y":0,"polygon":[{"x":800,"y":785},{"x":830,"y":785},{"x":864,"y":786},{"x":902,"y":788},{"x":941,"y":789},{"x":982,"y":791},{"x":1024,"y":792},{"x":1066,"y":793},{"x":1107,"y":793},{"x":1146,"y":793},{"x":1182,"y":791},{"x":1215,"y":789},{"x":1243,"y":786},{"x":1268,"y":781},{"x":1292,"y":775},{"x":1315,"y":769},{"x":1336,"y":761},{"x":1355,"y":753},{"x":1373,"y":745},{"x":1389,"y":736},{"x":1404,"y":727},{"x":1417,"y":718},{"x":1428,"y":708},{"x":1438,"y":699},{"x":1445,"y":691},{"x":1450,"y":685},{"x":1454,"y":678},{"x":1456,"y":670},{"x":1458,"y":661},{"x":1459,"y":652},{"x":1459,"y":641},{"x":1458,"y":631},{"x":1456,"y":620},{"x":1453,"y":610},{"x":1449,"y":600},{"x":1446,"y":591},{"x":1442,"y":584},{"x":1437,"y":577},{"x":1431,"y":570},{"x":1423,"y":562},{"x":1413,"y":553},{"x":1402,"y":545},{"x":1391,"y":538},{"x":1379,"y":531},{"x":1367,"y":525},{"x":1356,"y":521},{"x":1346,"y":517},{"x":1337,"y":516},{"x":1330,"y":515},{"x":1324,"y":516},{"x":1317,"y":517},{"x":1308,"y":520},{"x":1298,"y":525},{"x":1287,"y":531},{"x":1276,"y":538},{"x":1264,"y":546},{"x":1253,"y":555},{"x":1242,"y":564},{"x":1231,"y":573},{"x":1221,"y":583},{"x":1213,"y":591},{"x":1208,"y":597},{"x":1203,"y":604},{"x":1199,"y":613},{"x":1195,"y":624},{"x":1190,"y":637},{"x":1186,"y":650},{"x":1180,"y":665},{"x":1174,"y":681},{"x":1165,"y":697},{"x":1154,"y":713},{"x":1139,"y":728},{"x":1120,"y":740},{"x":1101,"y":748},{"x":1081,"y":752},{"x":1062,"y":755},{"x":1042,"y":755},{"x":1023,"y":755},{"x":1004,"y":754},{"x":985,"y":752},{"x":966,"y":750},{"x":948,"y":748},{"x":931,"y":746},{"x":915,"y":745},{"x":900,"y":745},{"x":884,"y":745},{"x":868,"y":746},{"x":851,"y":747},{"x":834,"y":748},{"x":816,"y":749},{"x":798,"y":750},{"x":780,"y":751},{"x":762,"y":751},{"x":744,"y":751},{"x":726,"y":749},{"x":708,"y":747},{"x":690,"y":744},{"x":674,"y":740},{"x":657,"y":735},{"x":641,"y":729},{"x":625,"y":723},{"x":609,"y":716},{"x":594,"y":708},{"x":579,"y":700},{"x":565,"y":691},{"x":551,"y":680},{"x":539,"y":668},{"x":528,"y":655},{"x":519,"y":639},{"x":513,"y":622},{"x":510,"y":605},{"x":509,"y":588},{"x":509,"y":571},{"x":511,"y":553},{"x":515,"y":536},{"x":521,"y":520},{"x":527,"y":503},{"x":536,"y":487},{"x":546,"y":472},{"x":558,"y":458},{"x":572,"y":445},{"x":589,"y":434},{"x":606,"y":425},{"x":624,"y":418},{"x":643,"y":412},{"x":662,"y":408},{"x":682,"y":404},{"x":701,"y":400},{"x":720,"y":397},{"x":739,"y":395},{"x":758,"y":392},{"x":775,"y":389},{"x":792,"y":386},{"x":810,"y":383},{"x":828,"y":380},{"x":847,"y":378},{"x":865,"y":376},{"x":882,"y":375},{"x":899,"y":373},{"x":915,"y":372},{"x":931,"y":370},{"x":946,"y":368},{"x":960,"y":365},{"x":973,"y":362},{"x":985,"y":358},{"x":999,"y":352},{"x":1014,"y":346},{"x":1030,"y":339},{"x":1045,"y":332},{"x":1060,"y":325},{"x":1074,"y":317},{"x":1086,"y":309},{"x":1096,"y":302},{"x":1103,"y":296},{"x":1101,"y":292},{"x":1096,"y":285},{"x":1089,"y":276},{"x":1080,"y":268},{"x":1069,"y":259},{"x":1056,"y":250},{"x":1042,"y":242},{"x":1026,"y":235},{"x":1009,"y":229},{"x":990,"y":224},{"x":969,"y":220},{"x":943,"y":217},{"x":913,"y":215},{"x":880,"y":214},{"x":846,"y":213},{"x":810,"y":214},{"x":774,"y":215},{"x":737,"y":216},{"x":701,"y":218},{"x":667,"y":220},{"x":634,"y":222},{"x":604,"y":225},{"x":575,"y":227},{"x":547,"y":230},{"x":519,"y":233},{"x":493,"y":236},{"x":467,"y":240},{"x":442,"y":244},{"x":418,"y":249},{"x":395,"y":254},{"x":374,"y":260},{"x":354,"y":266},{"x":336,"y":273},{"x":320,"y":280},{"x":305,"y":288},{"x":291,"y":298},{"x":277,"y":307},{"x":265,"y":318},{"x":253,"y":329},{"x":243,"y":340},{"x":234,"y":352},{"x":225,"y":364},{"x":218,"y":376},{"x":212,"y":389},{"x":207,"y":400},{"x":203,"y":412},{"x":201,"y":423},{"x":200,"y":435},{"x":200,"y":448},{"x":201,"y":463},{"x":203,"y":478},{"x":206,"y":494},{"x":210,"y":510},{"x":214,"y":525},{"x":220,"y":539},{"x":226,"y":553},{"x":232,"y":565},{"x":238,"y":575},{"x":243,"y":583},{"x":250,"y":589},{"x":258,"y":596},{"x":268,"y":603},{"x":280,"y":610},{"x":292,"y":617},{"x":306,"y":624},{"x":320,"y":631},{"x":334,"y":638},{"x":349,"y":646},{"x":363,"y":654},{"x":377,"y":664},{"x":389,"y":674},{"x":400,"y":683},{"x":409,"y":693},{"x":418,"y":702},{"x":426,"y":710},{"x":433,"y":718},{"x":440,"y":725},{"x":446,"y":732},{"x":452,"y":737},{"x":458,"y":742},{"x":464,"y":746},{"x":471,"y":750},{"x":480,"y":754},{"x":489,"y":758},{"x":498,"y":762},{"x":509,"y":766},{"x":519,"y":769},{"x":530,"y":772},{"x":541,"y":775},{"x":553,"y":777},{"x":566,"y":780},{"x":578,"y":782},{"x":592,"y":784},{"x":605,"y":785},{"x":618,"y":787},{"x":630,"y":787},{"x":642,"y":788},{"x":654,"y":788},{"x":666,"y":788},{"x":680,"y":788},{"x":695,"y":787},{"x":712,"y":787},{"x":730,"y":786},{"x":751,"y":785},{"x":774,"y":785}],"visible":true,"rotation":0}],"visible":true,"opacity":1,"x":0,"y":0,"id":23},{"name":"checkpoints","type":"objectgroup","objects":[{"id":3,"name":"cp1","x":0,"y":0,"polyline":[{"x":1517,"y":750},{"x":1443,"y":690}],"visible":true,"rotation":0},{"id":4,"name":"cp2","x":0,"y":0,"polyline":[{"x":1330,"y":422},{"x":1330,"y":518}],"visible":true,"rotation":0},{"id":5,"name":"cp3","x":0,"y":0,"polyline":[{"x":1078,"y":657},{"x":1122,"y":743}],"visible":true,"rotation":0},{"id":6,"name":"cp4","x":0,"y":0,"polyline":[{"x":604,"y":600},{"x":516,"y":640}],"visible":true,"rotation":0},{"id":7,"name":"cp5","x":0,"y":0,"polyline":[{"x":809,"y":477},{"x":791,"y":383}],"visible":true,"rotation":0},{"id":8,"name":"cp6","x":0,"y":0,"polyline":[{"x":1198,"y":302},{"x":1098,"y":298}],"visible":true,"rotation":0},{"id":9,"name":"cp7","x":0,"y":0,"polyline":[{"x":279,"y":197},{"x":321,"y":283}],"visible":true,"rotation":0},{"id":10,"name":"cp8","x":0,"y":0,"polyline":[{"x":160,"y":626},{"x":240,"y":574}],"visible":true,"rotation":0},{"id":11,"name":"cp9","x":0,"y":0,"polyline":[{"x":427,"y":832},{"x":473,"y":748}],"visible":true,"rotation":0},{"id":12,"name":"finish","x":0,"y":0,"polyline":[{"x":800,"y":878},{"x":800,"y":782}],"visible":true,"rotation":0}],"visible":true,"opacity":1,"x":0,"y":0,"id":24},{"name":"spawns","type":"objectgroup","objects":[{"id":13,"name":"spawn1","point":true,"x":750,"y":809,"rotation":0.681189218065628,"visible":true},{"id":14,"name":"spawn2","point":true,"x":710,"y":849,"rotation":0.681189218065628,"visible":true},{"id":15,"name":"spawn3","point":true,"x":670,"y":808,"rotation":0.681189218065628,"visible":true},{"id":16,"name":"spawn4","point":true,"x":630,"y":848,"rotation":0.681189218065628,"visible":true},{"id":17,"name":"spawn5","point":true,"x":590,"y":808,"rotation":0.681189218065628,"visible":true}],"visible":true,"opacity":1,"x":0,"y":0,"id":25},{"name":"waypoints","type":"objectgroup","objects":[{"id":21,"name":"line","x":0,"y":0,"polygon":[{"x":800,"y":830},{"x":863,"y":831},{"x":940,"y":834},{"x":1023,"y":837},{"x":1107,"y":838},{"x":1185,"y":836},{"x":1250,"y":830},{"x":1304,"y":819},{"x":1351,"y":803},{"x":1393,"y":785},{"x":1429,"y":764},{"x":1458,"y":742},{"x":1480,"y":720},{"x":1495,"y":695},{"x":1503,"y":668},{"x":1504,"y":639},{"x":1500,"y":610},{"x":1491,"y":583},{"x":1480,"y":560},{"x":1464,"y":539},{"x":1441,"y":518},{"x":1414,"y":499},{"x":1386,"y":484},{"x":1357,"y":474},{"x":1330,"y":470},{"x":1304,"y":474},{"x":1277,"y":485},{"x":1251,"y":501},{"x":1225,"y":520},{"x":1201,"y":540},{"x":1180,"y":560},{"x":1164,"y":582},{"x":1153,"y":608},{"x":1143,"y":636},{"x":1133,"y":662},{"x":1119,"y":684},{"x":1100,"y":700},{"x":1074,"y":708},{"x":1042,"y":710},{"x":1008,"y":709},{"x":971,"y":705},{"x":935,"y":702},{"x":900,"y":700},{"x":866,"y":701},{"x":831,"y":703},{"x":796,"y":705},{"x":762,"y":706},{"x":730,"y":705},{"x":700,"y":700},{"x":671,"y":692},{"x":642,"y":681},{"x":615,"y":669},{"x":591,"y":654},{"x":572,"y":638},{"x":560,"y":620},{"x":554,"y":599},{"x":554,"y":574},{"x":559,"y":548},{"x":568,"y":522},{"x":582,"y":499},{"x":600,"y":480},{"x":624,"y":466},{"x":655,"y":456},{"x":690,"y":448},{"x":727,"y":442},{"x":765,"y":436},{"x":800,"y":430},{"x":834,"y":425},{"x":869,"y":421},{"x":903,"y":418},{"x":937,"y":414},{"x":970,"y":409},{"x":1000,"y":400},{"x":1031,"y":388},{"x":1065,"y":373},{"x":1097,"y":356},{"x":1124,"y":337},{"x":1143,"y":319},{"x":1150,"y":300},{"x":1145,"y":280},{"x":1131,"y":257},{"x":1109,"y":234},{"x":1080,"y":212},{"x":1043,"y":193},{"x":1000,"y":180},{"x":947,"y":172},{"x":881,"y":169},{"x":809,"y":169},{"x":735,"y":171},{"x":664,"y":175},{"x":600,"y":180},{"x":542,"y":185},{"x":487,"y":192},{"x":434,"y":200},{"x":384,"y":210},{"x":340,"y":224},{"x":300,"y":240},{"x":265,"y":260},{"x":235,"y":284},{"x":209,"y":311},{"x":187,"y":340},{"x":171,"y":370},{"x":160,"y":400},{"x":155,"y":432},{"x":156,"y":467},{"x":162,"y":504},{"x":172,"y":539},{"x":185,"y":572},{"x":200,"y":600},{"x":219,"y":623},{"x":244,"y":641},{"x":271,"y":657},{"x":300,"y":671},{"x":327,"y":685},{"x":350,"y":700},{"x":369,"y":716},{"x":385,"y":733},{"x":400,"y":749},{"x":415,"y":764},{"x":431,"y":778},{"x":450,"y":790},{"x":472,"y":800},{"x":494,"y":809},{"x":519,"y":816},{"x":544,"y":821},{"x":572,"y":826},{"x":600,"y":830},{"x":628,"y":832},{"x":654,"y":833},{"x":681,"y":833},{"x":713,"y":831},{"x":752,"y":830}],"visible":true,"rotation":0}],"visible":true,"opacity":1,"x":0,"y":0,"id":26},{"name":"items","type":"objectgroup","objects":[{"id":18,"name":"item1","point":true,"x":550,"y":150,"rotation":0,"visible":true},{"id":19,"name":"item2","point":true,"x":550,"y":180,"rotation":0,"visible":true},{"id":20,"name":"item3","point":true,"x":550,"y":210,"rotation":0,"visible":true}],"visible":true,"opacity":1,"x":0,"y":0,"id":27}]}