{"type":"map","version":"1.10","tiledversion":"1.11.0","orientation":"orthogonal","renderorder":"right-down","width":50,"height":28,"tilewidth":32,"tileheight":32,"infinite":false,"nextlayerid":99,"nextobjectid":31,"tilesets":[{"firstgid":1,"name":"surfaces","tilewidth":32,"tileheight":32,"tilecount":9,"columns":9,"image":"surfaces.png","imagewidth":288,"imageheight":32,"tiles":[{"id":0,"properties":[{"name":"surface","type":"string","value":"dirt"}]},{"id":1,"properties":[{"name":"surface","type":"string","value":"tarmac"}]},{"id":2,"properties":[{"name":"surface","type":"string","value":"mud"}]},{"id":3,"properties":[{"name":"surface","type":"string","value":"water"}]},{"id":4,"properties":[{"name":"surface","type":"string","value":"oil"}]},{"id":5,"properties":[{"name":"surface","type":"string","value":"boost"}]},{"id":6,"properties":[{"name":"surface","type":"string","value":"toxic"}]},{"id":7,"properties":[{"name":"surface","type":"string","value":"mogul"}]},{"id":8,"properties":[{"name":"surface","type":"string","value":"ramp"}]}]}],"layers":[{"id":30,"name":"surface","type":"tilelayer","width":50,"height":28,"data":[1,1,1,1,1,1,1,1,1,1,1,1,1,1,1,1,1,1,1,1,1,1,1,1,1,1,1,1,1,1,1,1,1,1,1,1,1,1,1,1,1,1,1,1,1,1,1,1,1,1,1,1,1,1,1,1,1,1,1,1,1,1,1,1,1,1,1,1,1,1,1,1,1,1,1,1,1,1,1,1,1,1,1,1,1,1,1,1,1,1,1,1,1,1,1,1,1,1,1,1,1,1,1,1,1,1,1,1,1,1,1,1,1,1,1,1,1,1,1,1,1,1,1,1,1,1,1,1,1,1,1,1,1,1,1,1,1,1,1,1,1,1,1,1,1,1,1,1,1,1,1,1,1,1,1,1,1,1,1,1,1,1,1,1,1,1,1,1,1,1,1,1,1,1,1,1,1,1,1,1,1,1,1,1,1,1,1,1,1,1,1,1,1,1,1,1,1,1,1,1,1,1,1,1,1,1,1,1,1,1,1,1,1,1,1,1,1,1,1,1,1,1,1,1,1,1,1,1,1,1,1,1,1,1,1,1,1,1,1,1,1,1,1,1,1,1,1,1,1,1,1,1,1,1,1,1,1,1,1,1,1,1,1,1,1,1,1,1,1,1,1,1,1,1,1,1,1,1,1,1,1,1,1,1,1,1,1,1,1,1,1,1,1,1,1,1,1,1,1,1,1,1,1,1,1,1,1,1,1,1,1,1,1,1,1,1,1,1,1,1,1,1,1,1,1,1,1,1,1,1,1,1,1,1,1,1,1,1,1,1,1,1,1,1,1,1,1,1,1,1,1,1,1,1,1,1,1,1,1,1,1,1,1,1,1,1,1,1,1,1,1,1,1,1,1,1,1,1,1,1,1,1,1,1,1,1,1,1,1,1,1,1,1,1,1,1,1,1,1,1,1,1,1,1,1,1,1,1,1,1,1,1,1,1,1,1,1,1,1,1,1,1,1,1,1,1,1,1,1,1,1,1,1,1,1,1,1,1,1,1,1,1,1,1,1,1,1,1,1,1,1,1,1,1,1,1,1,1,1,1,1,1,1,1,1,1,1,1,1,1,1,1,1,1,1,1,1,1,1,1,1,1,1,1,1,1,1,1,1,1,1,1,1,1,1,1,1,1,1,1,1,1,1,1,1,1,1,1,1,1,1,1,1,1,1,1,1,1,1,1,1,1,1,1,1,1,1,1,1,1,1,1,1,1,1,1,1,1,1,1,1,1,1,1,1,1,1,1,1,1,1,1,1,1,1,1,1,1,1,1,1,1,1,1,1,1,1,1,1,1,1,1,1,1,1,1,1,1,1,1,1,1,1,1,1,1,1,1,1,1,1,1,1,1,1,1,1,1,1,1,1,1,1,1,1,1,1,1,1,1,1,1,1,1,1,1,1,1,1,1,1,1,1,1,1,1,1,1,1,1,1,1,1,1,1,1,1,1,1,1,1,1,1,1,1,1,1,1,1,1,1,1,1,1,1,1,1,1,1,1,1,1,1,1,1,1,1,1,1,1,1,1,1,1,1,1,1,1,1,1,1,1,1,1,1,1,1,1,1,1,1,1,1,1,1,1,1,1,1,1,1,1,1,1,1,1,1,1,1,1,1,1,1,1,1,1,1,1,1,1,1,1,1,1,1,1,1,1,1,1,1,1,1,1,1,1,1,1,1,1,1,1,1,1,1,1,1,1,1,1,1,1,1,1,1,1,1,1,1,1,1,1,1,1,1,1,1,1,1,1,1,1,1,1,1,1,1,1,1,1,1,1,1,1,1,1,1,1,1,1,1,1,1,1,1,1,1,1,1,1,1,1,1,1,1,1,1,1,1,1,1,1,1,1,1,1,1,1,1,1,1,1,1,1,1,1,1,1,1,1,1,1,1,1,1,1,1,1,1,1,1,1,1,1,1,1,1,1,1,1,1,1,1,1,1,1,1,1,1,1,1,1,1,1,1,1,1,1,1,1,1,1,1,1,1,1,1,1,1,1,1,1,1,1,1,1,1,1,1,1,1,1,1,1,1,1,1,1,1,1,1,1,1,1,1,1,1,1,3,3,3,1,1,1,1,1,1,1,1,1,1,1,1,1,1,1,1,1,1,1,1,1,1,1,1,1,1,1,1,1,1,1,1,1,1,1,1,1,1,1,1,1,1,1,1,1,1,3,3,3,3,3,1,1,1,1,1,1,1,1,1,1,1,1,1,5,5,1,1,1,1,1,1,1,1,1,1,1,1,1,1,1,1,1,1,1,1,1,1,1,1,1,1,1,1,1,1,3,3,3,3,3,1,1,1,1,1,1,1,1,1,1,1,1,1,5,5,1,1,1,1,1,1,1,1,1,1,1,1,1,1,1,1,1,1,1,1,1,1,1,1,1,1,1,1,1,1,1,1,1,3,1,1,1,1,1,1,1,1,1,1,1,1,1,1,1,1,1,1,1,1,1,1,1,1,1,1,1,1,1,1,1,1,1,1,1,1,1,1,1,1,1,1,1,1,1,1,1,1,1,1,1,1,1,1,1,1,1,1,1,1,1,1,1,1,1,1,1,1,1,1,1,1,1,1,1,1,1,1,1,1,1,1,1,1,1,1,1,1,1,1,1,1,1,1,1,1,1,1,1,1,1,1,1,1,1,1,1,1,1,1,1,1,1,1,1,1,1,1,1,1,1,1,1,1,1,1,1,1,1,1,1,1,1,1,1,1,1,1,1,1,1,1,1,1,1,1,1,1,1,1,1,1,1,1,1,1,1,1,1,1,1,1,1,1,1,1,1,1,1,1,1,1,1,1,1,1,1,1,1,1,1,1,1,1,1,1,1,1,1,1,1,1,1,1,1,1,1,1,1,1,1,1,1,1,1,1,1,1,1,1,1,1,1,1,1,1,1,1,1,1,1,1,1,1,1,1,1,1,1,6,6,1,1,1,1,1,1,1,1,1,1,1,1,1,1,1,1,1,1,1,1,1,1,1,1,1,1,1,1,1,1,1,1,1,1,1,1,1,1,1,1,1,1,1,1,1,1,1,1,6,6,1,1,1,1,1,1,1,1,1,1,1,1,1,1,1,1,1,1,1,1,1,1,1,1,1,1,1,1,1,1,1,1,1,1,1,1,1,1,1,1,1,1,1,1,1,1,1,1,6,1,1,1,1,1,1,1,1,1],"visible":true,"opacity":1,"x":0,"y":0},{"name":"walls","type":"objectgroup","objects":[{"id":1,"name":"wall0","x":0,"y":0,"polyline":[{"x":1244,"y":885},{"x":1261,"y":883},{"x":1277,"y":881},{"x":1293,"y":879},{"x":1308,"y":877},{"x":1324,"y":874},{"x":1339,"y":871},{"x":1353,"y":868},{"x":1368,"y":864},{"x":1382,"y":859},{"x":1396,"y":853},{"x":1410,"y":846},{"x":1423,"y":839},{"x":1435,"y":831},{"x":1446,"y":824},{"x":1458,"y":816},{"x":1470,"y":807},{"x":1481,"y":797},{"x":1493,"y":786},{"x":1503,"y":774},{"x":1514,"y":760},{"x":1523,"y":745},{"x":1531,"y":728},{"x":1538,"y":710},{"x":1544,"y":691},{"x":1548,"y":671},{"x":1552,"y":649},{"x":1555,"y":625},{"x":1558,"y":599},{"x":1560,"y":573},{"x":1561,"y":546},{"x":1561,"y":518},{"x":1560,"y":491},{"x":1558,"y":464},{"x":1554,"y":437},{"x":1549,"y":411},{"x":1543,"y":387},{"x":1535,"y":364},{"x":1526,"y":342},{"x":1515,"y":320},{"x":1504,"y":298},{"x":1491,"y":278},{"x":1477,"y":258},{"x":1462,"y":238},{"x":1446,"y":220},{"x":1429,"y":203},{"x":1411,"y":188},{"x":1392,"y":173},{"x":1372,"y":161},{"x":1351,"y":150},{"x":1328,"y":141},{"x":1303,"y":133},{"x":1278,"y":126},{"x":1253,"y":121},{"x":1227,"y":118},{"x":1201,"y":116},{"x":1176,"y":115},{"x":1152,"y":115},{"x":1128,"y":117},{"x":1106,"y":121},{"x":1084,"y":128},{"x":1063,"y":138},{"x":1045,"y":152},{"x":1029,"y":167},{"x":1017,"y":184},{"x":1007,"y":201},{"x":998,"y":218},{"x":990,"y":236},{"x":984,"y":252},{"x":977,"y":268},{"x":972,"y":284},{"x":966,"y":297},{"x":959,"y":311},{"x":952,"y":327},{"x":945,"y":344},{"x":939,"y":362},{"x":934,"y":379},{"x":929,"y":396},{"x":924,"y":412},{"x":919,"y":426},{"x":915,"y":440},{"x":910,"y":450},{"x":906,"y":459},{"x":903,"y":464},{"x":901,"y":466},{"x":900,"y":467},{"x":899,"y":467},{"x":897,"y":467},{"x":893,"y":467},{"x":887,"y":467},{"x":879,"y":466},{"x":869,"y":464},{"x":858,"y":461},{"x":845,"y":459}],"visible":true,"rotation":0},{"id":2,"name":"wall1","x":0,"y":0,"polyline":[{"x":845,"y":459},{"x":748,"y":453},{"x":734,"y":452}],"visible":true,"rotation":0,"properties":[{"name":"under","type":"bool","value":true}]},{"id":3,"name":"wall2","x":0,"y":0,"polyline":[{"x":734,"y":452},{"x":718,"y":452},{"x":701,"y":452},{"x":683,"y":452},{"x":665,"y":454},{"x":646,"y":457},{"x":626,"y":461},{"x":605,"y":468},{"x":583,"y":476},{"x":561,"y":488},{"x":540,"y":501},{"x":518,"y":515},{"x":497,"y":529},{"x":477,"y":543},{"x":456,"y":557},{"x":437,"y":569},{"x":419,"y":580},{"x":402,"y":588},{"x":387,"y":593},{"x":374,"y":595},{"x":360,"y":596},{"x":345,"y":596},{"x":328,"y":594},{"x":311,"y":590},{"x":295,"y":586},{"x":278,"y":580},{"x":262,"y":573},{"x":248,"y":566},{"x":234,"y":557},{"x":222,"y":549},{"x":213,"y":540},{"x":205,"y":532},{"x":199,"y":523},{"x":193,"y":511},{"x":187,"y":498},{"x":182,"y":483},{"x":178,"y":466},{"x":175,"y":449},{"x":173,"y":431},{"x":173,"y":414},{"x":173,"y":397},{"x":175,"y":382},{"x":178,"y":368},{"x":182,"y":357},{"x":187,"y":345},{"x":195,"y":333},{"x":204,"y":320},{"x":216,"y":307},{"x":228,"y":293},{"x":243,"y":280},{"x":258,"y":268},{"x":274,"y":256},{"x":290,"y":246},{"x":306,"y":236},{"x":321,"y":228},{"x":336,"y":222},{"x":350,"y":217},{"x":366,"y":213},{"x":383,"y":210},{"x":401,"y":209},{"x":419,"y":208},{"x":438,"y":207},{"x":457,"y":208},{"x":476,"y":210},{"x":495,"y":212},{"x":513,"y":215},{"x":531,"y":219},{"x":548,"y":223},{"x":564,"y":228},{"x":580,"y":235},{"x":597,"y":242},{"x":615,"y":251},{"x":632,"y":260},{"x":649,"y":271},{"x":665,"y":281},{"x":680,"y":292},{"x":695,"y":303},{"x":708,"y":313},{"x":719,"y":323},{"x":728,"y":331},{"x":734,"y":338},{"x":738,"y":344},{"x":742,"y":351},{"x":744,"y":357},{"x":747,"y":364},{"x":748,"y":371},{"x":750,"y":379},{"x":751,"y":388},{"x":752,"y":397},{"x":753,"y":407},{"x":754,"y":418},{"x":756,"y":427},{"x":757,"y":434},{"x":757,"y":438},{"x":757,"y":441},{"x":757,"y":445}],"visible":true,"rotation":0},{"id":4,"name":"wall3","x":0,"y":0,"polyline":[{"x":757,"y":445},{"x":757,"y":449},{"x":756,"y":454},{"x":762,"y":548},{"x":764,"y":559}],"visible":true,"rotation":0,"properties":[{"name":"deck","type":"bool","value":true}]},{"id":5,"name":"wall4","x":0,"y":0,"polyline":[{"x":764,"y":559},{"x":767,"y":571},{"x":769,"y":583},{"x":772,"y":596},{"x":776,"y":608},{"x":779,"y":621},{"x":783,"y":634},{"x":788,"y":646},{"x":793,"y":658},{"x":798,"y":670},{"x":803,"y":682},{"x":809,"y":694},{"x":814,"y":707},{"x":821,"y":719},{"x":827,"y":731},{"x":834,"y":743},{"x":841,"y":755},{"x":849,"y":767},{"x":857,"y":778},{"x":865,"y":788},{"x":871,"y":796},{"x":878,"y":804},{"x":884,"y":813},{"x":891,"y":822},{"x":899,"y":831},{"x":908,"y":840},{"x":918,"y":850},{"x":930,"y":858},{"x":943,"y":866},{"x":957,"y":873},{"x":973,"y":879},{"x":990,"y":884},{"x":1008,"y":887},{"x":1028,"y":890},{"x":1049,"y":891},{"x":1071,"y":892},{"x":1094,"y":893},{"x":1117,"y":892},{"x":1140,"y":892},{"x":1163,"y":891},{"x":1185,"y":890},{"x":1206,"y":888},{"x":1226,"y":886},{"x":1244,"y":885}],"visible":true,"rotation":0},{"id":6,"name":"wall5","x":0,"y":0,"polyline":[{"x":1236,"y":795},{"x":1252,"y":794},{"x":1267,"y":792},{"x":1281,"y":790},{"x":1294,"y":788},{"x":1307,"y":786},{"x":1319,"y":784},{"x":1330,"y":781},{"x":1340,"y":778},{"x":1350,"y":774},{"x":1359,"y":771},{"x":1368,"y":766},{"x":1377,"y":761},{"x":1387,"y":755},{"x":1396,"y":749},{"x":1405,"y":743},{"x":1413,"y":737},{"x":1421,"y":730},{"x":1427,"y":724},{"x":1433,"y":717},{"x":1439,"y":710},{"x":1444,"y":701},{"x":1449,"y":692},{"x":1453,"y":681},{"x":1456,"y":669},{"x":1460,"y":653},{"x":1463,"y":635},{"x":1466,"y":614},{"x":1468,"y":592},{"x":1470,"y":568},{"x":1471,"y":544},{"x":1471,"y":520},{"x":1470,"y":496},{"x":1468,"y":473},{"x":1465,"y":451},{"x":1462,"y":431},{"x":1457,"y":413},{"x":1451,"y":396},{"x":1444,"y":378},{"x":1435,"y":361},{"x":1426,"y":344},{"x":1416,"y":327},{"x":1404,"y":311},{"x":1393,"y":296},{"x":1380,"y":282},{"x":1367,"y":269},{"x":1354,"y":257},{"x":1341,"y":247},{"x":1328,"y":239},{"x":1314,"y":232},{"x":1297,"y":225},{"x":1279,"y":219},{"x":1259,"y":214},{"x":1238,"y":210},{"x":1217,"y":207},{"x":1196,"y":205},{"x":1176,"y":205},{"x":1157,"y":205},{"x":1140,"y":207},{"x":1126,"y":209},{"x":1116,"y":212},{"x":1110,"y":215},{"x":1104,"y":219},{"x":1098,"y":226},{"x":1092,"y":234},{"x":1086,"y":244},{"x":1079,"y":257},{"x":1073,"y":270},{"x":1067,"y":285},{"x":1061,"y":301},{"x":1055,"y":318},{"x":1048,"y":334},{"x":1041,"y":349},{"x":1035,"y":362},{"x":1030,"y":375},{"x":1025,"y":390},{"x":1020,"y":405},{"x":1015,"y":422},{"x":1010,"y":438},{"x":1005,"y":455},{"x":999,"y":472},{"x":992,"y":488},{"x":984,"y":504},{"x":973,"y":520},{"x":959,"y":534},{"x":943,"y":545},{"x":926,"y":553},{"x":909,"y":556},{"x":893,"y":557},{"x":878,"y":556},{"x":864,"y":554}],"visible":true,"rotation":0},{"id":7,"name":"wall6","x":0,"y":0,"polyline":[{"x":864,"y":554},{"x":757,"y":544},{"x":743,"y":543}],"visible":true,"rotation":0,"properties":[{"name":"under","type":"bool","value":true}]},{"id":8,"name":"wall7","x":0,"y":0,"polyline":[{"x":743,"y":543},{"x":730,"y":542},{"x":716,"y":542},{"x":703,"y":542},{"x":689,"y":542},{"x":676,"y":544},{"x":662,"y":546},{"x":648,"y":549},{"x":635,"y":552},{"x":621,"y":558},{"x":605,"y":566},{"x":588,"y":577},{"x":568,"y":590},{"x":548,"y":603},{"x":527,"y":618},{"x":505,"y":632},{"x":483,"y":646},{"x":460,"y":659},{"x":436,"y":671},{"x":411,"y":679},{"x":386,"y":685},{"x":361,"y":686},{"x":338,"y":685},{"x":314,"y":682},{"x":291,"y":678},{"x":268,"y":672},{"x":246,"y":664},{"x":224,"y":655},{"x":204,"y":644},{"x":184,"y":632},{"x":166,"y":619},{"x":150,"y":604},{"x":135,"y":588},{"x":122,"y":570},{"x":111,"y":550},{"x":103,"y":529},{"x":96,"y":507},{"x":90,"y":484},{"x":86,"y":461},{"x":84,"y":438},{"x":83,"y":414},{"x":84,"y":391},{"x":86,"y":368},{"x":91,"y":345},{"x":98,"y":323},{"x":108,"y":303},{"x":120,"y":283},{"x":134,"y":264},{"x":149,"y":246},{"x":166,"y":229},{"x":184,"y":212},{"x":202,"y":197},{"x":222,"y":182},{"x":242,"y":169},{"x":263,"y":157},{"x":283,"y":147},{"x":304,"y":138},{"x":326,"y":131},{"x":348,"y":125},{"x":370,"y":121},{"x":393,"y":119},{"x":416,"y":118},{"x":440,"y":118},{"x":463,"y":118},{"x":485,"y":120},{"x":508,"y":123},{"x":530,"y":127},{"x":551,"y":131},{"x":572,"y":137},{"x":593,"y":143},{"x":615,"y":151},{"x":636,"y":161},{"x":657,"y":171},{"x":677,"y":183},{"x":696,"y":194},{"x":715,"y":207},{"x":733,"y":219},{"x":750,"y":232},{"x":765,"y":244},{"x":779,"y":256},{"x":792,"y":269},{"x":804,"y":282},{"x":814,"y":296},{"x":823,"y":311},{"x":829,"y":326},{"x":833,"y":340},{"x":837,"y":354},{"x":839,"y":366},{"x":840,"y":378},{"x":841,"y":388},{"x":842,"y":397},{"x":843,"y":405},{"x":844,"y":413},{"x":846,"y":422},{"x":847,"y":432},{"x":847,"y":442},{"x":847,"y":451}],"visible":true,"rotation":0},{"id":9,"name":"wall8","x":0,"y":0,"polyline":[{"x":847,"y":451},{"x":846,"y":458},{"x":855,"y":553},{"x":857,"y":563},{"x":860,"y":574}],"visible":true,"rotation":0,"properties":[{"name":"deck","type":"bool","value":true}]},{"id":10,"name":"wall9","x":0,"y":0,"polyline":[{"x":860,"y":574},{"x":862,"y":584},{"x":865,"y":594},{"x":869,"y":604},{"x":872,"y":614},{"x":876,"y":624},{"x":880,"y":635},{"x":885,"y":645},{"x":890,"y":656},{"x":895,"y":667},{"x":900,"y":677},{"x":906,"y":688},{"x":912,"y":697},{"x":918,"y":707},{"x":923,"y":716},{"x":929,"y":724},{"x":935,"y":732},{"x":942,"y":741},{"x":949,"y":750},{"x":955,"y":758},{"x":961,"y":765},{"x":966,"y":771},{"x":971,"y":776},{"x":975,"y":780},{"x":980,"y":784},{"x":986,"y":787},{"x":993,"y":790},{"x":1001,"y":793},{"x":1010,"y":796},{"x":1022,"y":798},{"x":1037,"y":800},{"x":1055,"y":802},{"x":1074,"y":802},{"x":1094,"y":803},{"x":1115,"y":803},{"x":1137,"y":802},{"x":1158,"y":801},{"x":1179,"y":800},{"x":1200,"y":798},{"x":1218,"y":797},{"x":1236,"y":795}],"visible":true,"rotation":0}],"visible":true,"opacity":1,"x":0,"y":0,"id":31},{"name":"checkpoints","type":"objectgroup","objects":[{"id":12,"name":"cp1","x":0,"y":0,"polyline":[{"x":1547,"y":692},{"x":1453,"y":668}],"visible":true,"rotation":0},{"id":13,"name":"cp2","x":0,"y":0,"polyline":[{"x":1374,"y":158},{"x":1326,"y":242}],"visible":true,"rotation":0},{"id":14,"name":"cp3","x":0,"y":0,"polyline":[{"x":957,"y":310},{"x":1043,"y":350}],"visible":true,"rotation":0},{"id":15,"name":"cp4","x":0,"y":0,"polyline":[{"x":374,"y":592},{"x":386,"y":688}],"visible":true,"rotation":0},{"id":16,"name":"cp5","x":0,"y":0,"polyline":[{"x":185,"y":358},{"x":95,"y":322}],"visible":true,"rotation":0},{"id":17,"name":"cp6","x":0,"y":0,"polyline":[{"x":337,"y":225},{"x":303,"y":135}],"visible":true,"rotation":0},{"id":18,"name":"cp7","x":0,"y":0,"polyline":[{"x":726,"y":334},{"x":794,"y":266}],"visible":true,"rotation":0},{"id":19,"name":"cp8","x":0,"y":0,"polyline":[{"x":862,"y":790},{"x":938,"y":730}],"visible":true,"rotation":0},{"id":20,"name":"finish","x":0,"y":0,"polyline":[{"x":1245,"y":888},{"x":1235,"y":792}],"visible":true,"rotation":0}],"visible":true,"opacity":1,"x":0,"y":0,"id":32},{"name":"spawns","type":"objectgroup","objects":[{"id":21,"name":"spawn1","point":true,"x":1188,"y":825,"rotation":-5.869412610785778,"visible":true},{"id":22,"name":"spawn2","point":true,"x":1153,"y":869,"rotation":-5.869412610785778,"visible":true},{"id":23,"name":"spawn3","point":true,"x":1109,"y":833,"rotation":-5.869412610785778,"visible":true},{"id":24,"name":"spawn4","point":true,"x":1073,"y":877,"rotation":-5.869412610785778,"visible":true},{"id":25,"name":"spawn5","point":true,"x":1029,"y":842,"rotation":-5.869412610785778,"visible":true}],"visible":true,"opacity":1,"x":0,"y":0,"id":33},{"name":"waypoints","type":"objectgroup","objects":[{"id":29,"name":"line","x":0,"y":0,"polygon":[{"x":1240,"y":840},{"x":1272,"y":837},{"x":1301,"y":833},{"x":1329,"y":828},{"x":1354,"y":821},{"x":1378,"y":812},{"x":1400,"y":800},{"x":1421,"y":786},{"x":1441,"y":772},{"x":1460,"y":755},{"x":1476,"y":735},{"x":1490,"y":710},{"x":1500,"y":680},{"x":1508,"y":642},{"x":1513,"y":596},{"x":1516,"y":545},{"x":1515,"y":493},{"x":1510,"y":444},{"x":1500,"y":400},{"x":1485,"y":360},{"x":1465,"y":321},{"x":1441,"y":284},{"x":1413,"y":251},{"x":1383,"y":223},{"x":1350,"y":200},{"x":1312,"y":183},{"x":1269,"y":170},{"x":1222,"y":163},{"x":1176,"y":160},{"x":1134,"y":162},{"x":1100,"y":170},{"x":1074,"y":186},{"x":1054,"y":209},{"x":1039,"y":238},{"x":1026,"y":269},{"x":1013,"y":301},{"x":1000,"y":330},{"x":987,"y":360},{"x":977,"y":392},{"x":967,"y":425},{"x":957,"y":456},{"x":945,"y":481},{"x":930,"y":500},{"x":912,"y":510},{"x":893,"y":512},{"x":872,"y":510},{"x":849,"y":506},{"x":825,"y":501},{"x":800,"y":500},{"x":774,"y":500},{"x":746,"y":498},{"x":717,"y":497},{"x":686,"y":497},{"x":654,"y":501},{"x":620,"y":510},{"x":583,"y":527},{"x":543,"y":552},{"x":502,"y":581},{"x":460,"y":608},{"x":419,"y":629},{"x":380,"y":640},{"x":341,"y":640},{"x":301,"y":634},{"x":262,"y":622},{"x":226,"y":605},{"x":194,"y":584},{"x":170,"y":560},{"x":152,"y":531},{"x":139,"y":495},{"x":131,"y":455},{"x":128,"y":414},{"x":131,"y":375},{"x":140,"y":340},{"x":157,"y":308},{"x":182,"y":276},{"x":213,"y":246},{"x":248,"y":219},{"x":284,"y":197},{"x":320,"y":180},{"x":357,"y":169},{"x":397,"y":164},{"x":439,"y":163},{"x":481,"y":165},{"x":522,"y":171},{"x":560,"y":180},{"x":597,"y":193},{"x":636,"y":211},{"x":673,"y":233},{"x":707,"y":256},{"x":736,"y":279},{"x":760,"y":300},{"x":776,"y":320},{"x":787,"y":341},{"x":793,"y":363},{"x":796,"y":383},{"x":798,"y":402},{"x":800,"y":420},{"x":802,"y":435},{"x":802,"y":448},{"x":801,"y":459},{"x":799,"y":471},{"x":799,"y":484},{"x":800,"y":500},{"x":803,"y":519},{"x":806,"y":540},{"x":811,"y":562},{"x":816,"y":585},{"x":822,"y":608},{"x":830,"y":630},{"x":839,"y":652},{"x":849,"y":675},{"x":861,"y":698},{"x":873,"y":720},{"x":886,"y":741},{"x":900,"y":760},{"x":913,"y":777},{"x":926,"y":793},{"x":939,"y":808},{"x":955,"y":821},{"x":975,"y":832},{"x":1000,"y":840},{"x":1033,"y":845},{"x":1073,"y":847},{"x":1116,"y":848},{"x":1161,"y":846},{"x":1203,"y":843}],"visible":true,"rotation":0}],"visible":true,"opacity":1,"x":0,"y":0,"id":34},{"name":"items","type":"objectgroup","objects":[{"id":26,"name":"item1","point":true,"x":1200,"y":150,"rotation":0,"visible":true},{"id":27,"name":"item2","point":true,"x":1200,"y":180,"rotation":0,"visible":true},{"id":28,"name":"item3","point":true,"x":1200,"y":210,"rotation":0,"visible":true}],"visible":true,"opacity":1,"x":0,"y":0,"id":35},{"name":"bridges","type":"objectgroup","objects":[{"id":11,"name":"deck","x":730,"y":430,"width":140,"height":140,"rotation":0,"visible":true,"properties":[{"name":"entry","type":"string","value":"top"}]}],"visible":true,"opacity":1,"x":0,"y":0,"id":36}]}