{"type":"map","version":"1.10","tiledversion":"1.11.0","orientation":"orthogonal","renderorder":"right-down","width":50,"height":28,"tilewidth":32,"tileheight":32,"infinite":false,"nextlayerid":99,"nextobjectid":25,"tilesets":[{"firstgid":1,"name":"surfaces","tilewidth":32,"tileheight":32,"tilecount":9,"columns":9,"image":"surfaces.png","imagewidth":288,"imageheight":32,"tiles":[{"id":0,"properties":[{"name":"surface","type":"string","value":"dirt"}]},{"id":1,"properties":[{"name":"surface","type":"string","value":"tarmac"}]},{"id":2,"properties":[{"name":"surface","type":"string","value":"mud"}]},{"id":3,"properties":[{"name":"surface","type":"string","value":"water"}]},{"id":4,"properties":[{"name":"surface","type":"string","value":"oil"}]},{"id":5,"properties":[{"name":"surface","type":"string","value":"boost"}]},{"id":6,"properties":[{"name":"surface","type":"string","value":"toxic"}]},{"id":7,"properties":[{"name":"surface","type":"string","value":"mogul"}]},{"id":8,"properties":[{"name":"surface","type":"string","value":"ramp"}]}]}],"layers":[{"id":24,"name":"surface","type":"tilelayer","width":50,"height":28,"data":[1,1,1,1,1,1,1,1,1,1,1,1,1,1,1,1,1,1,1,1,1,1,1,1,1,1,1,1,1,1,1,1,1,1,1,1,1,1,1,1,1,1,1,1,1,1,1,1,1,1,1,1,1,1,1,1,1,1,1,1,1,1,1,1,1,1,1,1,1,1,1,1,1,1,1,1,1,1,1,1,1,1,1,1,1,1,1,1,1,1,1,1,1,1,1,1,1,1,1,1,1,1,1,1,1,1,1,1,1,1,1,1,1,1,1,1,1,1,1,1,1,1,1,1,1,1,1,1,1,1,1,1,1,1,1,1,1,1,1,1,1,1,1,1,1,1,1,1,1,1,1,1,1,1,1,1,1,1,1,1,1,1,1,1,1,1,1,1,1,1,1,1,1,1,2,2,2,2,2,2,2,2,2,1,1,1,1,1,1,1,1,1,1,1,1,1,1,1,1,1,1,1,1,1,1,1,1,1,1,1,1,1,1,1,1,1,1,1,1,1,2,2,2,2,2,2,2,2,2,2,2,2,2,1,1,1,1,1,1,1,1,1,1,1,1,1,1,1,1,1,1,1,1,1,1,1,1,1,1,1,1,1,1,1,1,1,1,1,1,1,2,2,2,2,2,2,2,2,2,2,2,2,2,1,1,1,1,1,1,1,1,1,1,1,1,1,1,1,1,1,1,1,1,1,1,1,1,1,1,1,1,1,1,1,1,1,1,1,1,1,2,2,2,2,2,2,1,1,1,1,1,1,1,1,1,1,1,1,1,1,1,1,1,1,1,1,1,1,1,1,1,1,1,1,1,1,1,1,1,1,1,1,1,1,1,1,1,1,1,1,1,1,1,1,1,1,1,1,1,1,1,1,1,1,1,1,1,1,1,1,1,1,1,1,1,1,1,1,1,1,1,1,1,1,1,1,1,1,1,1,1,1,1,1,1,1,1,1,1,1,1,1,1,1,1,1,1,1,1,1,1,1,1,1,1,1,1,1,1,1,1,1,1,1,1,1,1,1,1,1,1,1,1,1,1,1,1,1,1,1,1,1,1,1,1,1,1,1,1,1,1,1,1,1,1,1,1,1,1,1,1,1,1,1,1,1,1,1,1,1,1,1,1,1,1,1,1,1,1,1,1,1,1,1,1,1,1,1,1,1,1,1,1,1,1,1,1,1,1,1,1,1,1,1,1,1,1,1,1,1,1,1,1,1,1,1,1,1,1,1,1,1,1,1,1,1,1,1,1,1,1,1,1,1,1,1,1,1,1,1,1,1,1,1,1,1,1,1,1,1,1,1,1,1,1,1,1,1,1,1,1,1,1,1,1,1,1,1,1,1,1,1,1,1,1,1,1,1,1,1,1,1,1,1,1,1,1,1,1,1,1,1,1,1,1,1,1,1,1,1,1,1,1,1,1,1,1,1,1,1,1,1,1,1,1,1,1,1,1,1,1,1,1,1,1,1,1,1,1,1,1,1,1,1,3,3,1,1,1,1,1,1,1,1,1,1,1,1,1,1,1,1,1,1,1,1,1,1,1,1,1,1,1,1,1,1,1,1,1,1,1,1,1,1,1,1,1,1,1,1,1,1,1,3,3,3,1,1,1,1,1,1,1,1,1,1,1,1,1,1,1,1,1,1,1,1,1,1,1,1,1,1,1,1,1,1,1,1,1,1,1,1,1,1,1,1,1,1,1,1,1,1,1,3,3,3,3,1,1,1,1,1,1,1,1,1,1,1,1,1,1,1,1,1,1,1,1,1,1,1,1,1,1,1,1,1,1,1,1,7,7,7,1,1,1,1,1,1,1,1,1,1,1,1,3,3,3,1,1,1,1,1,1,1,1,1,1,1,1,1,1,1,1,1,1,1,1,1,1,1,1,1,1,1,1,1,1,1,1,7,1,1,1,1,1,1,1,1,1,1,1,1,1,1,3,3,3,1,1,1,1,1,1,1,1,1,1,1,1,1,1,1,1,1,1,1,1,1,1,1,1,1,1,1,1,1,1,1,1,1,1,1,1,1,1,1,1,1,1,1,1,1,1,1,1,1,1,1,1,1,1,1,1,1,1,1,1,1,1,1,1,1,1,1,1,1,1,1,1,1,1,1,1,1,1,1,1,1,1,1,1,1,1,1,1,1,1,1,1,1,1,1,1,1,1,1,1,1,1,1,1,1,1,1,1,1,1,1,1,1,1,1,1,1,1,4,4,4,1,1,1,1,1,1,1,1,1,1,1,1,1,1,1,1,1,9,9,9,1,1,1,1,1,1,1,1,1,1,1,1,1,1,1,1,1,1,1,1,1,1,1,1,1,1,4,4,4,4,4,1,1,1,1,1,1,1,1,1,1,1,1,1,1,1,1,1,1,1,1,1,1,1,1,1,1,1,1,1,1,1,1,1,1,1,1,1,1,1,1,1,1,1,1,1,1,4,4,4,4,1,1,1,1,1,1,1,1,1,1,1,1,1,1,1,1,1,1,1,1,1,1,1,1,1,1,1,1,1,1,1,1,1,1,1,1,1,1,1,1,1,1,1,1,1,1,1,4,4,1,1,1,1,1,1,1,1,1,1,1,1,1,1,1,1,1,9,9,9,1,1,1,1,1,1,1,1,1,1,1,1,1,1,1,1,1,1,1,1,1,1,1,1,1,1,1,1,1,1,1,1,1,1,1,1,1,1,1,1,1,1,1,1,1,1,1,1,1,1,1,1,1,1,1,1,1,1,1,1,1,1,1,1,1,1,1,1,1,1,1,1,1,1,1,1,1,1,1,1,1,1,1,1,1,1,1,1,1,1,1,1,1,1,1,1,1,1,1,1,1,1,1,1,1,1,1,1,1,1,1,1,1,1,1,1,1,1,1,6,6,1,1,1,1,1,1,1,1,1,1,1,1,1,1,1,1,1,1,1,1,1,1,1,1,1,1,1,1,1,1,1,1,1,1,1,1,1,1,1,1,1,1,1,1,1,1,1,1,6,6,1,1,1,1,1,1,1,1,1,1,1,1,1,1,1,1,1,1,1,1,1,1,1,1,1,1,1,1,1,1,1,1,1,1,1,1,1,1,1,1,1,1,1,1,1,1,1,1,6,6,1,1,1,1,1,1,1,1,1,1,1,1,1,1,1,1,1,1,1,1,1,1,1,1,1,1,1,1,1,1,1],"visible":true,"opacity":1,"x":0,"y":0},{"name":"walls","type":"objectgroup","objects":[{"id":1,"name":"outer","x":0,"y":0,"polygon":[{"x":519,"y":885},{"x":540,"y":885},{"x":563,"y":886},{"x":587,"y":887},{"x":611,"y":887},{"x":636,"y":888},{"x":661,"y":888},{"x":686,"y":888},{"x":711,"y":888},{"x":735,"y":888},{"x":759,"y":887},{"x":782,"y":886},{"x":804,"y":885},{"x":826,"y":882},{"x":846,"y":879},{"x":865,"y":875},{"x":883,"y":870},{"x":899,"y":865},{"x":915,"y":861},{"x":929,"y":856},{"x":943,"y":853},{"x":957,"y":849},{"x":971,"y":847},{"x":985,"y":846},{"x":1000,"y":845},{"x":1015,"y":846},{"x":1032,"y":848},{"x":1050,"y":851},{"x":1070,"y":856},{"x":1091,"y":861},{"x":1112,"y":866},{"x":1134,"y":872},{"x":1157,"y":877},{"x":1181,"y":881},{"x":1205,"y":884},{"x":1229,"y":886},{"x":1253,"y":885},{"x":1276,"y":883},{"x":1299,"y":879},{"x":1323,"y":875},{"x":1347,"y":871},{"x":1370,"y":865},{"x":1394,"y":858},{"x":1417,"y":850},{"x":1439,"y":841},{"x":1460,"y":831},{"x":1480,"y":819},{"x":1499,"y":805},{"x":1515,"y":788},{"x":1528,"y":769},{"x":1538,"y":748},{"x":1544,"y":726},{"x":1548,"y":704},{"x":1550,"y":682},{"x":1551,"y":659},{"x":1549,"y":637},{"x":1546,"y":615},{"x":1542,"y":594},{"x":1536,"y":574},{"x":1528,"y":554},{"x":1518,"y":536},{"x":1506,"y":519},{"x":1491,"y":504},{"x":1476,"y":490},{"x":1458,"y":478},{"x":1440,"y":467},{"x":1421,"y":456},{"x":1401,"y":448},{"x":1381,"y":440},{"x":1361,"y":434},{"x":1341,"y":429},{"x":1320,"y":426},{"x":1300,"y":425},{"x":1278,"y":427},{"x":1258,"y":431},{"x":1238,"y":437},{"x":1219,"y":445},{"x":1201,"y":455},{"x":1183,"y":464},{"x":1167,"y":475},{"x":1151,"y":485},{"x":1135,"y":495},{"x":1121,"y":505},{"x":1108,"y":514},{"x":1095,"y":523},{"x":1081,"y":533},{"x":1067,"y":544},{"x":1056,"y":555},{"x":1045,"y":566},{"x":1036,"y":576},{"x":1028,"y":585},{"x":1020,"y":594},{"x":1013,"y":601},{"x":1007,"y":606},{"x":1000,"y":611},{"x":994,"y":614},{"x":986,"y":617},{"x":976,"y":620},{"x":963,"y":623},{"x":949,"y":625},{"x":934,"y":626},{"x":919,"y":627},{"x":903,"y":628},{"x":886,"y":627},{"x":870,"y":626},{"x":854,"y":625},{"x":839,"y":623},{"x":825,"y":620},{"x":812,"y":617},{"x":798,"y":613},{"x":784,"y":608},{"x":769,"y":602},{"x":754,"y":595},{"x":740,"y":588},{"x":726,"y":581},{"x":714,"y":573},{"x":703,"y":566},{"x":694,"y":558},{"x":687,"y":552},{"x":684,"y":547},{"x":682,"y":544},{"x":681,"y":541},{"x":681,"y":534},{"x":681,"y":526},{"x":683,"y":516},{"x":685,"y":504},{"x":690,"y":492},{"x":695,"y":480},{"x":701,"y":469},{"x":707,"y":458},{"x":714,"y":449},{"x":721,"y":441},{"x":727,"y":436},{"x":734,"y":431},{"x":743,"y":426},{"x":754,"y":422},{"x":767,"y":418},{"x":780,"y":415},{"x":796,"y":412},{"x":812,"y":410},{"x":828,"y":408},{"x":846,"y":406},{"x":864,"y":406},{"x":882,"y":405},{"x":899,"y":405},{"x":915,"y":406},{"x":931,"y":408},{"x":949,"y":412},{"x":969,"y":416},{"x":989,"y":422},{"x":1011,"y":427},{"x":1033,"y":433},{"x":1056,"y":438},{"x":1080,"y":442},{"x":1104,"y":445},{"x":1130,"y":446},{"x":1155,"y":445},{"x":1180,"y":441},{"x":1206,"y":436},{"x":1232,"y":429},{"x":1259,"y":422},{"x":1286,"y":413},{"x":1313,"y":403},{"x":1339,"y":393},{"x":1363,"y":382},{"x":1385,"y":370},{"x":1405,"y":357},{"x":1423,"y":343},{"x":1438,"y":324},{"x":1448,"y":301},{"x":1451,"y":277},{"x":1448,"y":255},{"x":1442,"y":235},{"x":1432,"y":216},{"x":1420,"y":199},{"x":1407,"y":182},{"x":1392,"y":167},{"x":1375,"y":153},{"x":1357,"y":140},{"x":1338,"y":128},{"x":1317,"y":119},{"x":1296,"y":111},{"x":1272,"y":104},{"x":1247,"y":99},{"x":1221,"y":95},{"x":1194,"y":91},{"x":1166,"y":89},{"x":1138,"y":87},{"x":1109,"y":86},{"x":1081,"y":85},{"x":1053,"y":85},{"x":1025,"y":85},{"x":999,"y":85},{"x":972,"y":86},{"x":944,"y":89},{"x":917,"y":92},{"x":891,"y":97},{"x":864,"y":102},{"x":838,"y":106},{"x":813,"y":111},{"x":789,"y":116},{"x":765,"y":119},{"x":742,"y":122},{"x":721,"y":124},{"x":700,"y":125},{"x":681,"y":124},{"x":662,"y":122},{"x":642,"y":119},{"x":623,"y":115},{"x":603,"y":110},{"x":583,"y":105},{"x":562,"y":99},{"x":541,"y":94},{"x":519,"y":90},{"x":496,"y":86},{"x":472,"y":85},{"x":448,"y":85},{"x":425,"y":87},{"x":401,"y":89},{"x":377,"y":92},{"x":352,"y":96},{"x":328,"y":101},{"x":303,"y":106},{"x":279,"y":113},{"x":255,"y":121},{"x":232,"y":129},{"x":210,"y":140},{"x":190,"y":152},{"x":171,"y":166},{"x":154,"y":182},{"x":140,"y":199},{"x":128,"y":218},{"x":117,"y":238},{"x":109,"y":258},{"x":102,"y":279},{"x":96,"y":300},{"x":92,"y":320},{"x":89,"y":341},{"x":87,"y":361},{"x":85,"y":381},{"x":85,"y":401},{"x":87,"y":423},{"x":91,"y":446},{"x":98,"y":467},{"x":106,"y":486},{"x":115,"y":505},{"x":123,"y":524},{"x":132,"y":541},{"x":140,"y":557},{"x":146,"y":571},{"x":151,"y":584},{"x":154,"y":595},{"x":155,"y":602},{"x":155,"y":608},{"x":153,"y":614},{"x":150,"y":622},{"x":145,"y":631},{"x":139,"y":641},{"x":132,"y":653},{"x":124,"y":665},{"x":117,"y":678},{"x":109,"y":694},{"x":104,"y":712},{"x":103,"y":734},{"x":108,"y":757},{"x":118,"y":775},{"x":129,"y":789},{"x":142,"y":801},{"x":156,"y":813},{"x":170,"y":823},{"x":186,"y":832},{"x":202,"y":841},{"x":219,"y":849},{"x":236,"y":856},{"x":254,"y":863},{"x":271,"y":868},{"x":289,"y":874},{"x":307,"y":878},{"x":326,"y":881},{"x":344,"y":883},{"x":363,"y":885},{"x":382,"y":885},{"x":402,"y":886},{"x":421,"y":886},{"x":440,"y":885},{"x":460,"y":885},{"x":479,"y":885},{"x":499,"y":885}],"visible":true,"rotation":0},{"id":2,"name":"inner","x":0,"y":0,"polygon":[{"x":521,"y":795},{"x":543,"y":795},{"x":565,"y":796},{"x":589,"y":797},{"x":613,"y":797},{"x":637,"y":798},{"x":662,"y":798},{"x":686,"y":798},{"x":710,"y":798},{"x":733,"y":798},{"x":756,"y":797},{"x":777,"y":797},{"x":796,"y":795},{"x":813,"y":793},{"x":829,"y":791},{"x":844,"y":787},{"x":859,"y":783},{"x":874,"y":779},{"x":889,"y":774},{"x":905,"y":770},{"x":922,"y":765},{"x":940,"y":761},{"x":959,"y":758},{"x":979,"y":756},{"x":1000,"y":755},{"x":1023,"y":756},{"x":1046,"y":759},{"x":1068,"y":763},{"x":1091,"y":768},{"x":1113,"y":773},{"x":1134,"y":779},{"x":1155,"y":784},{"x":1175,"y":789},{"x":1195,"y":792},{"x":1213,"y":795},{"x":1230,"y":796},{"x":1247,"y":795},{"x":1265,"y":793},{"x":1285,"y":791},{"x":1306,"y":787},{"x":1327,"y":783},{"x":1347,"y":778},{"x":1367,"y":772},{"x":1386,"y":766},{"x":1403,"y":759},{"x":1418,"y":752},{"x":1430,"y":744},{"x":1439,"y":737},{"x":1445,"y":732},{"x":1449,"y":725},{"x":1453,"y":717},{"x":1457,"y":705},{"x":1459,"y":692},{"x":1460,"y":677},{"x":1461,"y":662},{"x":1460,"y":646},{"x":1458,"y":631},{"x":1454,"y":616},{"x":1451,"y":603},{"x":1446,"y":592},{"x":1442,"y":584},{"x":1437,"y":577},{"x":1429,"y":569},{"x":1420,"y":561},{"x":1408,"y":553},{"x":1395,"y":545},{"x":1382,"y":537},{"x":1367,"y":531},{"x":1352,"y":525},{"x":1338,"y":521},{"x":1324,"y":518},{"x":1311,"y":516},{"x":1300,"y":515},{"x":1291,"y":516},{"x":1281,"y":518},{"x":1269,"y":522},{"x":1257,"y":527},{"x":1243,"y":534},{"x":1229,"y":542},{"x":1215,"y":551},{"x":1200,"y":560},{"x":1186,"y":570},{"x":1172,"y":580},{"x":1158,"y":589},{"x":1145,"y":597},{"x":1135,"y":604},{"x":1127,"y":611},{"x":1120,"y":618},{"x":1112,"y":627},{"x":1103,"y":636},{"x":1095,"y":646},{"x":1085,"y":656},{"x":1074,"y":667},{"x":1062,"y":677},{"x":1048,"y":687},{"x":1031,"y":696},{"x":1014,"y":703},{"x":996,"y":708},{"x":979,"y":711},{"x":960,"y":714},{"x":941,"y":716},{"x":922,"y":717},{"x":902,"y":718},{"x":883,"y":717},{"x":863,"y":716},{"x":844,"y":714},{"x":825,"y":711},{"x":806,"y":708},{"x":788,"y":703},{"x":771,"y":698},{"x":753,"y":692},{"x":735,"y":685},{"x":717,"y":677},{"x":699,"y":669},{"x":681,"y":659},{"x":664,"y":649},{"x":648,"y":637},{"x":633,"y":625},{"x":620,"y":611},{"x":607,"y":595},{"x":598,"y":576},{"x":593,"y":556},{"x":591,"y":536},{"x":591,"y":517},{"x":594,"y":498},{"x":599,"y":479},{"x":605,"y":460},{"x":613,"y":442},{"x":622,"y":424},{"x":633,"y":408},{"x":645,"y":392},{"x":658,"y":377},{"x":673,"y":364},{"x":689,"y":353},{"x":706,"y":345},{"x":724,"y":337},{"x":742,"y":331},{"x":761,"y":327},{"x":781,"y":323},{"x":800,"y":320},{"x":820,"y":318},{"x":840,"y":317},{"x":860,"y":316},{"x":880,"y":315},{"x":901,"y":315},{"x":923,"y":316},{"x":946,"y":319},{"x":969,"y":324},{"x":991,"y":329},{"x":1012,"y":335},{"x":1033,"y":340},{"x":1054,"y":345},{"x":1074,"y":350},{"x":1093,"y":353},{"x":1111,"y":356},{"x":1128,"y":356},{"x":1145,"y":355},{"x":1164,"y":352},{"x":1186,"y":348},{"x":1209,"y":342},{"x":1233,"y":335},{"x":1257,"y":328},{"x":1281,"y":319},{"x":1303,"y":310},{"x":1323,"y":301},{"x":1340,"y":292},{"x":1352,"y":284},{"x":1360,"y":278},{"x":1361,"y":278},{"x":1360,"y":275},{"x":1358,"y":270},{"x":1354,"y":262},{"x":1348,"y":253},{"x":1340,"y":243},{"x":1331,"y":233},{"x":1320,"y":224},{"x":1308,"y":215},{"x":1295,"y":208},{"x":1283,"y":201},{"x":1268,"y":196},{"x":1251,"y":192},{"x":1231,"y":187},{"x":1209,"y":184},{"x":1184,"y":181},{"x":1159,"y":179},{"x":1133,"y":177},{"x":1106,"y":176},{"x":1079,"y":175},{"x":1052,"y":175},{"x":1026,"y":175},{"x":1001,"y":175},{"x":978,"y":176},{"x":955,"y":178},{"x":930,"y":181},{"x":906,"y":185},{"x":881,"y":190},{"x":855,"y":195},{"x":830,"y":200},{"x":804,"y":204},{"x":778,"y":209},{"x":752,"y":212},{"x":726,"y":214},{"x":700,"y":215},{"x":674,"y":214},{"x":649,"y":211},{"x":625,"y":207},{"x":603,"y":202},{"x":581,"y":197},{"x":561,"y":192},{"x":541,"y":187},{"x":522,"y":182},{"x":504,"y":178},{"x":486,"y":176},{"x":469,"y":175},{"x":452,"y":175},{"x":432,"y":176},{"x":411,"y":179},{"x":390,"y":181},{"x":368,"y":185},{"x":346,"y":189},{"x":325,"y":194},{"x":304,"y":199},{"x":285,"y":205},{"x":268,"y":212},{"x":252,"y":219},{"x":239,"y":227},{"x":229,"y":234},{"x":221,"y":243},{"x":213,"y":252},{"x":205,"y":263},{"x":199,"y":276},{"x":193,"y":290},{"x":188,"y":305},{"x":184,"y":320},{"x":181,"y":337},{"x":178,"y":353},{"x":176,"y":369},{"x":175,"y":385},{"x":175,"y":399},{"x":176,"y":410},{"x":178,"y":423},{"x":183,"y":436},{"x":189,"y":451},{"x":196,"y":467},{"x":204,"y":484},{"x":213,"y":501},{"x":221,"y":519},{"x":229,"y":537},{"x":236,"y":556},{"x":242,"y":576},{"x":245,"y":598},{"x":244,"y":620},{"x":239,"y":641},{"x":232,"y":659},{"x":224,"y":675},{"x":216,"y":689},{"x":208,"y":701},{"x":201,"y":712},{"x":196,"y":720},{"x":193,"y":726},{"x":196,"y":729},{"x":202,"y":734},{"x":210,"y":741},{"x":219,"y":747},{"x":230,"y":754},{"x":243,"y":760},{"x":256,"y":767},{"x":270,"y":772},{"x":284,"y":778},{"x":298,"y":783},{"x":311,"y":786},{"x":325,"y":790},{"x":338,"y":792},{"x":353,"y":794},{"x":368,"y":795},{"x":385,"y":795},{"x":402,"y":796},{"x":420,"y":796},{"x":439,"y":795},{"x":459,"y":795},{"x":479,"y":795},{"x":500,"y":795}],"visible":true,"rotation":0}],"visible":true,"opacity":1,"x":0,"y":0,"id":25},{"name":"checkpoints","type":"objectgroup","objects":[{"id":3,"name":"cp1","x":0,"y":0,"polyline":[{"x":1000,"y":848},{"x":1000,"y":752}],"visible":true,"rotation":0},{"id":4,"name":"cp2","x":0,"y":0,"polyline":[{"x":1517,"y":790},{"x":1443,"y":730}],"visible":true,"rotation":0},{"id":5,"name":"cp3","x":0,"y":0,"polyline":[{"x":1300,"y":422},{"x":1300,"y":518}],"visible":true,"rotation":0},{"id":6,"name":"cp4","x":0,"y":0,"polyline":[{"x":985,"y":614},{"x":1015,"y":706}],"visible":true,"rotation":0},{"id":7,"name":"cp5","x":0,"y":0,"polyline":[{"x":685,"y":543},{"x":595,"y":577}],"visible":true,"rotation":0},{"id":8,"name":"cp6","x":0,"y":0,"polyline":[{"x":899,"y":408},{"x":901,"y":312}],"visible":true,"rotation":0},{"id":9,"name":"cp7","x":0,"y":0,"polyline":[{"x":1441,"y":326},{"x":1358,"y":273}],"visible":true,"rotation":0},{"id":10,"name":"cp8","x":0,"y":0,"polyline":[{"x":999,"y":82},{"x":1001,"y":178}],"visible":true,"rotation":0},{"id":11,"name":"cp9","x":0,"y":0,"polyline":[{"x":448,"y":82},{"x":452,"y":178}],"visible":true,"rotation":0},{"id":12,"name":"cp10","x":0,"y":0,"polyline":[{"x":82,"y":401},{"x":178,"y":399}],"visible":true,"rotation":0},{"id":13,"name":"cp11","x":0,"y":0,"polyline":[{"x":105,"y":758},{"x":198,"y":721}],"visible":true,"rotation":0},{"id":14,"name":"finish","x":0,"y":0,"polyline":[{"x":519,"y":888},{"x":521,"y":792}],"visible":true,"rotation":0}],"visible":true,"opacity":1,"x":0,"y":0,"id":26},{"name":"spawns","type":"objectgroup","objects":[{"id":15,"name":"spawn1","point":true,"x":470,"y":819,"rotation":1.27285864769209,"visible":true},{"id":16,"name":"spawn2","point":true,"x":430,"y":858,"rotation":1.27285864769209,"visible":true},{"id":17,"name":"spawn3","point":true,"x":390,"y":817,"rotation":1.27285864769209,"visible":true},{"id":18,"name":"spawn4","point":true,"x":350,"y":856,"rotation":1.27285864769209,"visible":true},{"id":19,"name":"spawn5","point":true,"x":310,"y":815,"rotation":1.27285864769209,"visible":true}],"visible":true,"opacity":1,"x":0,"y":0,"id":27},{"name":"waypoints","type":"objectgroup","objects":[{"id":23,"name":"line","x":0,"y":0,"polygon":[{"x":520,"y":840},{"x":564,"y":841},{"x":612,"y":842},{"x":661,"y":843},{"x":710,"y":843},{"x":757,"y":842},{"x":800,"y":840},{"x":837,"y":835},{"x":871,"y":827},{"x":902,"y":818},{"x":933,"y":809},{"x":965,"y":803},{"x":1000,"y":800},{"x":1039,"y":803},{"x":1080,"y":812},{"x":1123,"y":823},{"x":1166,"y":833},{"x":1209,"y":839},{"x":1250,"y":840},{"x":1292,"y":835},{"x":1337,"y":827},{"x":1381,"y":815},{"x":1421,"y":800},{"x":1455,"y":782},{"x":1480,"y":760},{"x":1495,"y":732},{"x":1504,"y":698},{"x":1506,"y":661},{"x":1502,"y":623},{"x":1493,"y":588},{"x":1480,"y":560},{"x":1460,"y":537},{"x":1433,"y":515},{"x":1401,"y":497},{"x":1367,"y":483},{"x":1332,"y":473},{"x":1300,"y":470},{"x":1269,"y":474},{"x":1238,"y":486},{"x":1206,"y":503},{"x":1176,"y":523},{"x":1147,"y":542},{"x":1120,"y":560},{"x":1097,"y":577},{"x":1079,"y":596},{"x":1061,"y":616},{"x":1044,"y":634},{"x":1024,"y":649},{"x":1000,"y":660},{"x":971,"y":667},{"x":938,"y":671},{"x":903,"y":673},{"x":867,"y":671},{"x":832,"y":667},{"x":800,"y":660},{"x":768,"y":650},{"x":736,"y":636},{"x":704,"y":620},{"x":676,"y":601},{"x":653,"y":581},{"x":640,"y":560},{"x":636,"y":535},{"x":639,"y":507},{"x":648,"y":476},{"x":661,"y":447},{"x":679,"y":420},{"x":700,"y":400},{"x":725,"y":385},{"x":754,"y":375},{"x":788,"y":368},{"x":824,"y":363},{"x":862,"y":361},{"x":900,"y":360},{"x":939,"y":364},{"x":980,"y":373},{"x":1022,"y":384},{"x":1065,"y":394},{"x":1108,"y":401},{"x":1150,"y":400},{"x":1196,"y":392},{"x":1246,"y":379},{"x":1297,"y":361},{"x":1343,"y":341},{"x":1379,"y":321},{"x":1400,"y":300},{"x":1406,"y":278},{"x":1400,"y":252},{"x":1384,"y":226},{"x":1361,"y":200},{"x":1332,"y":177},{"x":1300,"y":160},{"x":1262,"y":148},{"x":1215,"y":139},{"x":1163,"y":134},{"x":1107,"y":131},{"x":1052,"y":130},{"x":1000,"y":130},{"x":949,"y":134},{"x":898,"y":141},{"x":847,"y":151},{"x":796,"y":160},{"x":747,"y":167},{"x":700,"y":170},{"x":655,"y":167},{"x":613,"y":159},{"x":572,"y":148},{"x":531,"y":138},{"x":491,"y":131},{"x":450,"y":130},{"x":406,"y":134},{"x":360,"y":140},{"x":314,"y":150},{"x":270,"y":163},{"x":231,"y":180},{"x":200,"y":200},{"x":176,"y":226},{"x":158,"y":257},{"x":145,"y":292},{"x":136,"y":329},{"x":131,"y":365},{"x":130,"y":400},{"x":135,"y":434},{"x":147,"y":469},{"x":164,"y":504},{"x":180,"y":538},{"x":194,"y":570},{"x":200,"y":600},{"x":196,"y":627},{"x":185,"y":653},{"x":170,"y":677},{"x":156,"y":699},{"x":148,"y":720},{"x":150,"y":740},{"x":163,"y":759},{"x":183,"y":777},{"x":208,"y":793},{"x":237,"y":808},{"x":269,"y":820},{"x":300,"y":830},{"x":332,"y":836},{"x":366,"y":840},{"x":402,"y":841},{"x":440,"y":840},{"x":479,"y":840}],"visible":true,"rotation":0}],"visible":true,"opacity":1,"x":0,"y":0,"id":28},{"name":"items","type":"objectgroup","objects":[{"id":20,"name":"item1","point":true,"x":1100,"y":785,"rotation":0,"visible":true},{"id":21,"name":"item2","point":true,"x":1100,"y":815,"rotation":0,"visible":true},{"id":22,"name":"item3","point":true,"x":1100,"y":845,"rotation":0,"visible":true}],"visible":true,"opacity":1,"x":0,"y":0,"id":29}]}